X: 646
T: Elâ Gözlüm Yıktın Benim Evimi
C: Sadettin Kaynak
O: Turkey
F: http://compmusic.upf.edu/node/140
N: zavil--turku--sofyan--ela_gozlum_yiktin--sadettin_kaynak
N: makam= zavil
N: form= turku
N: usul= sofyan = 4/4
M: 4/4
L: 1/16
K: C ^9/8f   
Q: 1/4=120
%%MIDI tuningsystem comma53
z4 f2g2 g2f2 g4  | g2gf g2a2 g2=f2 e2d2  | \
w:   |   | 
z4 f2g2 g2f2 g4  | 
w:   | 
g2gf g2a2 g2=f2 e2d2  | z4 e2=f2 f2e2 f4  | \
w:   |   | 
=f2fe f2g2 f2e2 d2c2  | 
w:   | 
z4 d2e2 e2d2 e4  | e2ed e2=f2 e2d2 c2B2  | \
w:   |   | 
^c2d2 z4 =c2d2 c2d2  | 
w:   | 
B2c2 z4 G2^A2 G2=A2  | A2c2 _7/8B2A2 G2F2 E2F2  | \
w:   |   | 
G6d2 e2f2 g4  | z4 f2g2 f4 g4  | 
w:   |  E la göz lüm  | 
f4 g4 f4 g4  | f2g2 g2f2 e4 e2d2  | e4 f4 g4 a4  | \
w:  yık tın be nim  |  e *  vi *  mi  |  ey len şu di  | 
g4 =f4 e4 d4  | e4 {g}=f2e2 e2d2 d2^c2  | 
w:  yar *  da  |  kal *  di *  ye *  di  | 
d6ed e2f2 g4  | z4 f2g2 f4 g4  | f4 g4 f4 g4  | \
w:  ye SAZ  |  E la göz lüm  |  yık tın be nim  | 
f2g2 g2f2 e4 e2d2  | 
w:  e *  vi *  mi  | 
e4 f4 g4 a4  | g4 =f4 e4 d4  | e4 {g}=f2e2 e2d2 d2^c2  | \
w:  ey len şu di  |  yar *  da  |  kal *  di *  ye *  di  | 
d6ed c2B2 c4  | 
w:  ye SAZ  | 
z4 c2c2 c4 c4  | c4 c4 c4 c2B2  | d4 {e}d2^c2 _7/8B2A2 G2B2  | \
w:  Vi ran et tin  |  bah çe mi  |  len *  *  *  ba *  ğı  | 
A6d2 ^c2e2 d4  | 
w:  mı SAZ  | 
^c2d6 d4 g4  | =f2e2 d2^c2 _7/8B3A G4  | \
w:  To mur cuk gül  |  le *  *  *  rim  | 
A4 {c}_7/8B2A2 A2G2 G2F2  | G6g2 =f2e2 d4  | 
w:  al *  di *  ye *  di  |  ye SAZ  | 
^c2d6 d4 g4  | =f2e2 d2^c2 _7/8B3A G4  | \
w:  To mur cuk gül  |  le *  *  *  rim  | 
A4 {c}_7/8B2A2 A2G2 G2F2  | G6d2 c2B2 c4  | 
w:  al *  di *  ye *  di  |  ye SAZ  | 
c4 B2c2 z8  | _7/8B4 A2B2 A2B2 z4  | \
w:  Al be ni  |  yar di ye di ye  | 
_7/8B4 A2B2 z8  | A4 G2A2 F2G2 z4  | \
w:  sar be ni  |  yar di ye di ye  | 
c4 B2c2 z8  | 
w:  Al be ni  | 
_7/8B4 A2B2 A2B2 z4  | _7/8B4 A2B2 z8  | \
w:  yar di ye di ye  |  sar be ni  | 
A4 G2A2 F2G2 z4  | ^c2d6 d4 g4  | =f2e2 d2^c2 _7/8B3A G4  | 
w:  yar di ye di ye  |  To mur cuk gül  |  le *  *  *  rim  | 
G4 _7/8B2A2 A2G2 G2F2  | G6g2 =f2e2 d4  | \
w:  al di *  ye *  di  |  ye SAZ  | 
^c2d6 d4 g4  | =f2e2 d2^c2 _7/8B3A G4  | 
w:  To mur cuk gül  |  le *  *  *  rim  | 
G4 _7/8B2A2 A2G2 G2F2  | G6D2 E2F2 G4  | |


